packages/tokens/icons/path/size16Px.svg

<svg viewBox="0 0 16 16" fill="none" xmlns="http://www.w3.org/2000/svg" width="1em" height="1em"><path d="M12.5 4.5L14.5 6.5L12.5 8.5" stroke="currentColor" stroke-linecap="round" stroke-linejoin="round"/><path d="M4 8.5H4.5C5.05228 8.5 5.5 8.05228 5.5 7.5L5.5 4C5.5 2.61929 6.61929 1.5 8 1.5V1.5C9.38071 1.5 10.5 2.61929 10.5 4V8.5C10.5 9.60457 9.60457 10.5 8.5 10.5H6.5C5.39543 10.5 4.5 11.3954 4.5 12.5V12.5C4.5 13.6046 5.39543 14.5 6.5 14.5H6.71415C8.40759 14.5 9.47417 12.6763 8.64394 11.2003L7.67654 9.48052C6.92661 8.14731 7.89004 6.5 9.41969 6.5L14.5 6.5" stroke="currentColor" stroke-linecap="round"/><path d="M3.5 8.5C3.5 9.05228 3.05228 9.5 2.5 9.5C1.94772 9.5 1.5 9.05228 1.5 8.5C1.5 7.94772 1.94772 7.5 2.5 7.5C3.05228 7.5 3.5 7.94772 3.5 8.5Z" stroke="currentColor"/></svg>

<svg xmlns="http://www.w3.org/2000/svg" fill="none" viewBox="0 0 16 16" width="1em" height="1em"><path stroke="currentColor" stroke-linecap="round" stroke-linejoin="round" d="m12.5 4.5 2 2-2 2"/><path stroke="currentColor" stroke-linecap="round" d="M4 8.5h.5a1 1 0 0 0 1-1V4A2.5 2.5 0 0 1 8 1.5v0A2.5 2.5 0 0 1 10.5 4v4.5a2 2 0 0 1-2 2h-2a2 2 0 0 0-2 2v0a2 2 0 0 0 2 2h.214c1.694 0 2.76-1.824 1.93-3.3l-.967-1.72C6.927 8.148 7.89 6.5 9.42 6.5h5.08"/><path stroke="currentColor" d="M3.5 8.5a1 1 0 1 1-2 0 1 1 0 0 1 2 0Z"/></svg>
